X:1
T: Georgie Finlay of St. Andrews
C:Billy Anderson
R:Strathspey
Q: 128
K:G
M:4/4
L:1/16
D4|:G4 A3B c3B AG3|FD3 FA3 c3A E3F|G4 A3B c3B AG3|1F3G AF3 G4 D4:|2F3G AF3 G6 c2|
|:B3G ((3B2c2d2) e3d c3B|A3c F3A E3F G3A|B3G ((3B2c2d2) e3d c3B|1A3G FA3 G6 c2:|2A3G FA3 G4 F4|
|:E4 F3G A3G FE3|^D3E F3E D3F DB,3|E4 F3G A3G FE3|1^D3E FD3 E4 B,4|2^D3E FD3 E4 c4|
|:B3E G3B c3B AG3|F3G A3G F3G A3c|B3E G3B c3B AG3|1F3E ^D3F E4 c4:|2F3E ^D3F E4 F4|
G3B, DG3 A3C FA3|B3D GB3 c3B AG3|F3G A3G FD3 FA3|c3B A3G F3G AF3|
G3B, DG3 A3C FA3|B3D GB3 c3B AG3|G4 A3B c3B AG3|F3G AF3 G4||
